src/img/footer/logo-footer.svg

<svg width="42" height="39" viewBox="0 0 42 39" fill="none" xmlns="http://www.w3.org/2000/svg">
<path d="M11 11.7156L1 21.7156L11 31.7156" stroke="black" stroke-width="2" stroke-linecap="round" stroke-linejoin="round"/>
<path d="M31 11.7156L41 21.7156L31 31.7156" stroke="black" stroke-width="2" stroke-linecap="round" stroke-linejoin="round"/>
<path d="M24.5349 4.32966L15.9481 36.3761C15.8314 36.8115 15.3838 37.07 14.9483 36.9533C14.5129 36.8366 14.2544 36.389 14.3711 35.9535L22.9579 3.9071C23.0746 3.47162 23.5222 3.21319 23.9577 3.32987C24.3932 3.44656 24.6516 3.89418 24.5349 4.32966Z" fill="black"/>
<path d="M22.9579 3.9071C23.0746 3.47162 23.5222 3.21319 23.9577 3.32987C24.3932 3.44656 24.6516 3.89418 24.5349 4.32966L23.4891 8.23279L21.9121 7.81023L22.9579 3.9071Z" fill="#D9D9D9"/>
<path d="M25.6948 6.30951L28.8488 7.15463" stroke="black" stroke-linecap="round"/>
<path d="M17.8096 4.19672L20.9637 5.04184" stroke="black" stroke-linecap="round"/>
<path d="M20.0797 0.250074C19.9407 0.0115079 19.6336 -0.0707718 19.3939 0.0662976C19.1542 0.203367 19.0726 0.50788 19.2116 0.746447L20.0797 0.250074ZM20.8493 3.5557C20.9883 3.79427 21.2954 3.87655 21.5351 3.73948C21.7749 3.60241 21.8564 3.29789 21.7174 3.05933L20.8493 3.5557ZM19.2116 0.746447L20.8493 3.5557L21.7174 3.05933L20.0797 0.250074L19.2116 0.746447Z" fill="black"/>
<path d="M17.3347 7.75157C17.095 7.88864 17.0134 8.19315 17.1524 8.43172C17.2915 8.67029 17.5986 8.75257 17.8383 8.6155L17.3347 7.75157ZM20.6612 7.00143C20.9009 6.86436 20.9825 6.55985 20.8434 6.32128C20.7043 6.08271 20.3973 6.00043 20.1575 6.1375L20.6612 7.00143ZM17.8383 8.6155L20.6612 7.00143L20.1575 6.1375L17.3347 7.75157L17.8383 8.6155Z" fill="black"/>
<path d="M25.7097 7.62526C25.5706 7.38669 25.2635 7.30441 25.0238 7.44148C24.7841 7.57855 24.7025 7.88306 24.8416 8.12163L25.7097 7.62526ZM26.4792 10.9309C26.6183 11.1694 26.9254 11.2517 27.1651 11.1147C27.4048 10.9776 27.4864 10.6731 27.3473 10.4345L26.4792 10.9309ZM24.8416 8.12163L26.4792 10.9309L27.3473 10.4345L25.7097 7.62526L24.8416 8.12163Z" fill="black"/>
<path d="M25.8978 4.17952C25.6581 4.31659 25.5765 4.6211 25.7156 4.85967C25.8547 5.09823 26.1617 5.18051 26.4015 5.04344L25.8978 4.17952ZM29.2243 3.42938C29.464 3.29231 29.5456 2.98779 29.4066 2.74923C29.2675 2.51066 28.9604 2.42838 28.7207 2.56545L29.2243 3.42938ZM26.4015 5.04344L29.2243 3.42938L28.7207 2.56545L25.8978 4.17952L26.4015 5.04344Z" fill="black"/>
</svg>

<svg xmlns="http://www.w3.org/2000/svg" width="42" height="39" fill="none"><path stroke="#000" stroke-linecap="round" stroke-linejoin="round" stroke-width="2" d="m11 11.716-10 10 10 10M31 11.716l10 10-10 10"/><path fill="#000" d="m24.535 4.33-8.587 32.046a.816.816 0 0 1-1.577-.422l8.587-32.047a.816.816 0 0 1 1.577.423"/><path fill="#d9d9d9" d="M22.958 3.907a.816.816 0 0 1 1.577.423l-1.046 3.903-1.577-.423z"/><path stroke="#000" stroke-linecap="round" d="m25.695 6.31 3.154.845M17.81 4.197l3.154.845"/><path fill="#000" d="M20.08.25a.505.505 0 0 0-.686-.184.495.495 0 0 0-.182.68zm.77 3.306c.138.238.445.32.685.183a.495.495 0 0 0 .182-.68zM19.211.746l1.637 2.81.868-.497L20.08.25zM17.335 7.752a.495.495 0 0 0-.183.68c.14.238.447.32.686.184zm3.326-.75a.495.495 0 0 0 .182-.68.505.505 0 0 0-.686-.184zm-2.823 1.614L20.661 7l-.504-.864-2.822 1.615zM25.71 7.625a.505.505 0 0 0-.686-.184.495.495 0 0 0-.182.68zm.77 3.306c.138.238.445.32.685.184a.495.495 0 0 0 .182-.68zm-1.638-2.81 1.637 2.81.868-.496-1.637-2.81zM25.898 4.18a.495.495 0 0 0-.182.68c.139.238.446.32.685.183zm3.326-.75a.495.495 0 0 0 .183-.68.505.505 0 0 0-.686-.185zm-2.823 1.613 2.823-1.614-.503-.864-2.823 1.615z"/></svg>
